src/assets/outline/UserCirlceAdd.svg

<svg width="24" height="24" viewBox="0 0 24 24"  xmlns="http://www.w3.org/2000/svg">
<path d="M11.4599 14.4799C9.4999 14.4799 7.8999 12.8799 7.8999 10.9199C7.8999 8.95986 9.4999 7.35986 11.4599 7.35986C13.4199 7.35986 15.0199 8.95986 15.0199 10.9199C15.0199 12.8799 13.4199 14.4799 11.4599 14.4799ZM11.4599 8.86987C10.3299 8.86987 9.3999 9.78987 9.3999 10.9299C9.3999 12.0699 10.3199 12.9899 11.4599 12.9899C12.5999 12.9899 13.5199 12.0699 13.5199 10.9299C13.5199 9.78987 12.5999 8.86987 11.4599 8.86987Z" />
<path d="M16.65 20.9498C16.24 20.9498 15.9 20.6098 15.9 20.1998C15.9 18.2798 13.91 16.7197 11.46 16.7197C9.01002 16.7197 7.02002 18.2798 7.02002 20.1998C7.02002 20.6098 6.68002 20.9498 6.27002 20.9498C5.86002 20.9498 5.52002 20.6098 5.52002 20.1998C5.52002 17.4598 8.18002 15.2197 11.46 15.2197C14.74 15.2197 17.4 17.4498 17.4 20.1998C17.4 20.6098 17.06 20.9498 16.65 20.9498Z" />
<path d="M11.5 22.75C5.85 22.75 1.25 18.15 1.25 12.5C1.25 6.85 5.85 2.25 11.5 2.25C12.89 2.25 14.23 2.51999 15.49 3.04999C15.85 3.19999 16.03 3.59997 15.91 3.96997C15.8 4.29997 15.75 4.65 15.75 5C15.75 5.59 15.91 6.16998 16.22 6.66998C16.38 6.94998 16.59 7.19997 16.83 7.40997C17.7 8.19997 18.99 8.45003 20 8.09003C20.37 7.95003 20.79 8.14001 20.94 8.51001C21.48 9.78001 21.75 11.13 21.75 12.51C21.75 18.15 17.15 22.75 11.5 22.75ZM11.5 3.75C6.68 3.75 2.75 7.67 2.75 12.5C2.75 17.33 6.68 21.25 11.5 21.25C16.32 21.25 20.25 17.33 20.25 12.5C20.25 11.54 20.09 10.59 19.79 9.67999C18.41 9.91999 16.9 9.49002 15.84 8.52002C15.49 8.22002 15.18 7.85 14.94 7.44C14.5 6.72 14.26 5.87 14.26 5C14.26 4.73 14.28 4.47002 14.33 4.21002C13.42 3.90002 12.47 3.75 11.5 3.75Z" />
<path d="M19 9.75C17.82 9.75 16.7 9.31002 15.83 8.52002C15.48 8.22002 15.17 7.85 14.93 7.44C14.49 6.72 14.25 5.87 14.25 5C14.25 4.49 14.33 3.99001 14.49 3.51001C14.71 2.83001 15.09 2.2 15.6 1.69C16.5 0.770002 17.71 0.25 19.01 0.25C20.37 0.25 21.66 0.830017 22.54 1.83002C23.32 2.70002 23.76 3.82 23.76 5C23.76 5.38 23.71 5.75999 23.61 6.12C23.51 6.56999 23.32 7.04001 23.06 7.45001C22.48 8.43001 21.56 9.16 20.48 9.5C20.03 9.67 19.53 9.75 19 9.75ZM19 1.75C18.11 1.75 17.28 2.09998 16.67 2.72998C16.32 3.08998 16.07 3.49997 15.92 3.96997C15.81 4.29997 15.76 4.65 15.76 5C15.76 5.59 15.92 6.16998 16.23 6.66998C16.39 6.94998 16.6 7.19997 16.84 7.40997C17.71 8.19997 19 8.45003 20.01 8.09003C20.77 7.85003 21.39 7.34999 21.79 6.67999C21.97 6.38999 22.09 6.08002 22.16 5.77002C22.23 5.51002 22.26 5.26 22.26 5C22.26 4.2 21.96 3.43002 21.42 2.83002C20.81 2.14002 19.93 1.75 19 1.75Z" />
<path d="M20.49 5.72998H17.5C17.09 5.72998 16.75 5.38998 16.75 4.97998C16.75 4.56998 17.09 4.22998 17.5 4.22998H20.49C20.9 4.22998 21.24 4.56998 21.24 4.97998C21.24 5.38998 20.91 5.72998 20.49 5.72998Z" />
<path d="M19 7.26001C18.59 7.26001 18.25 6.92001 18.25 6.51001V3.52002C18.25 3.11002 18.59 2.77002 19 2.77002C19.41 2.77002 19.75 3.11002 19.75 3.52002V6.51001C19.75 6.93001 19.41 7.26001 19 7.26001Z" />
</svg>

<?xml version="1.0" encoding="UTF-8"?>
<svg width="24" height="24" viewBox="0 0 24 24" xmlns="http://www.w3.org/2000/svg">
 <path d="m11.46 14.48c-1.96 0-3.56-1.6-3.56-3.56 0-1.96 1.6-3.56 3.56-3.56s3.56 1.6 3.56 3.56c0 1.96-1.6 3.56-3.56 3.56zm0-5.61c-1.13 0-2.06 0.92-2.06 2.06 0 1.14 0.92 2.06 2.06 2.06s2.06-0.92 2.06-2.06c0-1.14-0.92-2.06-2.06-2.06z"/>
 <path d="m16.65 20.95c-0.41 0-0.75-0.34-0.75-0.75 0-1.92-1.99-3.4801-4.44-3.4801-2.45 0-4.44 1.5601-4.44 3.4801 0 0.41-0.34 0.75-0.75 0.75s-0.75-0.34-0.75-0.75c0-2.74 2.66-4.9801 5.94-4.9801 3.28 0 5.94 2.2301 5.94 4.9801 0 0.41-0.34 0.75-0.75 0.75z"/>
 <path d="m11.5 22.75c-5.65 0-10.25-4.6-10.25-10.25s4.6-10.25 10.25-10.25c1.39 0 2.73 0.26999 3.99 0.79999 0.36 0.15 0.54 0.54998 0.42 0.91998-0.11 0.33-0.16 0.68003-0.16 1.03 0 0.59 0.16 1.17 0.47 1.67 0.16 0.28 0.37 0.52999 0.61 0.73999 0.87 0.79 2.16 1.0401 3.17 0.68006 0.37-0.14 0.79 0.04998 0.94 0.41998 0.54 1.27 0.81 2.62 0.81 4 0 5.64-4.6 10.24-10.25 10.24zm0-19c-4.82 0-8.75 3.92-8.75 8.75s3.93 8.75 8.75 8.75 8.75-3.92 8.75-8.75c0-0.96-0.16-1.91-0.46-2.82-1.38 0.24-2.89-0.18997-3.95-1.16-0.35-0.3-0.66-0.67002-0.9-1.08-0.44-0.72-0.68-1.57-0.68-2.44 0-0.27 0.02-0.52998 0.07-0.78998-0.91-0.31-1.86-0.46002-2.83-0.46002z"/>
 <path d="m19 9.75c-1.18 0-2.3-0.43998-3.17-1.23-0.35-0.3-0.66-0.67002-0.9-1.08-0.44-0.72-0.68-1.57-0.68-2.44 0-0.51 0.08-1.01 0.24-1.49 0.22-0.68 0.6-1.31 1.11-1.82 0.9-0.92 2.11-1.44 3.41-1.44 1.36 0 2.65 0.58002 3.53 1.58 0.78 0.87 1.22 1.99 1.22 3.17 0 0.38-0.05 0.75999-0.15 1.12-0.1 0.44999-0.29 0.92001-0.55 1.33-0.58 0.98-1.5 1.71-2.58 2.05-0.45 0.17-0.95 0.25-1.48 0.25zm0-8c-0.89 0-1.72 0.34998-2.33 0.97998-0.35 0.36-0.6 0.76999-0.75 1.24-0.11 0.33-0.16 0.68003-0.16 1.03 0 0.59 0.16 1.17 0.47 1.67 0.16 0.28 0.37 0.52999 0.61 0.73999 0.87 0.79 2.16 1.0401 3.17 0.68006 0.76-0.24 1.38-0.74004 1.78-1.41 0.18-0.29 0.3-0.59997 0.37-0.90997 0.07-0.26 0.1-0.51002 0.1-0.77002 0-0.8-0.3-1.57-0.84-2.17-0.61-0.69-1.49-1.08-2.42-1.08z"/>
 <path d="m20.49 5.73h-2.99c-0.41 0-0.75-0.34-0.75-0.75s0.34-0.75 0.75-0.75h2.99c0.41 0 0.75 0.34 0.75 0.75s-0.33 0.75-0.75 0.75z"/>
 <path d="m19 7.26c-0.41 0-0.75-0.34-0.75-0.75v-2.99c0-0.41 0.34-0.75 0.75-0.75s0.75 0.34 0.75 0.75v2.99c0 0.42-0.34 0.75-0.75 0.75z"/>
</svg>
